X: 120
%%topspace -50
%%composerspace -14
T: Star Wars
C: John Williams
M: 6/8
L: 1/8
K: Gmaj
"G"G6 | d3 cBA | g6 | d3 cBA | g6 | d3 cBc | "D"A6 | A3 D2D | 
"G"G6 | d3 cBA | g6 | d3 cBA | g6 | d3 cBc | "D"A6 | A3 D2D | 
"C"E3-E2E | c2B A2G | "G"GAB "C"A2E | "D"F3 D2D |"C" E3-E2E | c2B A2G | "D"d2A A3- | A3 D2D | 
"C"E3-E2E | c2B A2G | "G"GAB A2E | "D"F3 d2d | "G5 ish"g2=f_e2d | c2_BA2G | "D"d6 | d6 |]

